X: 1
T: Sally Gardens
T: the Maids of the Mourne Shore
R: reel
Z: 2009 John Chambers <jc:trillian.mit.edu>
M: C|
L: 1/8
K: G
|: "G"G2DG B2GB | dBeB dBB2 | d2Bd eBdB | "D7"AcBA GEDE |
|  "G"G2DG B2GB | dBeB dBB2 | d2Bd "(C)"egdB | "D7"cAFA "G"G2G2 :|
|: "G"dggf g2dg | g2bg agfg | "Am"eaag a2ea | a2bg "D7"ageg |
|  "G"dggf g2dg | g2bg "C"age[gc] | "G"d2Bd "(C)"egdB | "D7"cAFA "G"G2G2 :|
